X:1
T:The Home Over There
T:Tullius Clinton O’Kane
T:The Home Over There
T:Public Domain
T:Public Domain
C:Tullius Clinton O&#8217;Kane
Z:Public Domain
%%score ( 1 2 ) ( 3 4 )
L:1/8
M:4/4
K:A
V:1 treble 
V:2 treble 
V:3 bass 
V:4 bass 
V:1
 [CE]2 | [EA]2 [EA]>[EA] [EA]2 [Ec]>[DB] | [CA]6 [EG][EA] | [EB]2 [EB]>[EB] [EB]2 [Gd]>[Ec] | %4
w: 1.~O|think of the home o- ver|there, By the|side of the riv- er of|
w: 2.~O|think of the friends o- ver|there, Who be-|fore us the jour- ney have|
w: 3.~My|Sav- ior is now o- ver|there, There my|kin- dred and friends are at|
w: 4.~I’ll|soon be at home o- ver|there, For the|end of my jour- ney I|
 [EB]6 [EA][EB] | [Ec]2 [Ec]>[Ec] [Ec]2 [EB]>[EA] | ([FA]4 [DF]2) ([Fd][Fd]) | %7
w: light, Where the|saints, all im- mor- tal and|fair, * Are *|
w: trod, Of the|songs that they breathe on the|air, * In~their *|
w: rest, Then a-|way from my sor- row and|care, * Let *|
w: see; Ma- ny|dear to my heart, o- ver|there, * Are *|
 [Ec]2 [Ec]>[Ac] [GB]2 [Ac]>[EB] | (E2 E>E E2) ||"^Refrain" [EG]>[EA] | [GB]6 [CA]>[DB] | %11
w: robed in their gar- ments of|light. * * *|ver there,|o- ver there,|
w: home in the pal- ace of|God. * * *|ver there,|o- ver there,|
w: me fly to the land of|the~blest. * * *|ver there,|o- ver there,|
w: watch- ing and wait- ing for|me. * * *|ver there,|o- ver there,|
 [Ec]6 [Ac]2 | [Gd]2 [Gd]>[Gd] [Ac]2 [Ae]>[Ac] | (G2 G>G G2) e>d | (c2- E>E E2) B>A | %15
w: O think|of the home o- ver there,|O- * * * ver there,|ver * * * there, O|
w: O think|of the friends o- ver there,|O- * * * ver there,|ver * * * there, O|
w: My Sav-|ior is now o- ver there,|O- * * * ver there,|ver * * * there, My|
w: I’ll soon|be at home o- ver there,|O- * * * ver there,|ver * * * there, I’ll|
 (F2 [Fd]>[Fd] [Fd]2) [Fd]2 | [Fc]2 [Ac]>[Ac] [GB]2 [Ec]>[EB] | [EA]6 |] %18
w: think * * * of|the home o- ver there. *||
w: think * * * of|the friends o- ver there. *||
w: Sav- * * * ior|is now o- ver there. *||
w: soon * * * be|at home o- ver there. *||
V:2
 x2 | x8 | x8 | x8 | x8 | x8 | x8 | x8 | A6 || x2 | x8 | x8 | x8 | B4 x4 | x2 c4 x2 | x8 | x8 | %17
w: ||||||||O-|||||o-||||
w: ||||||||O-|||||o-||||
w: ||||||||O-|||||o-||||
w: ||||||||O-|||||o-||||
 x6 |] %18
w: |
w: |
w: |
w: |
V:3
 [A,,A,]2 | [A,,C]2 [A,,C]>[A,,C] [A,,C]2 [E,A,]>[E,G,] | [A,,A,]6 [E,B,][E,A,] | %3
 [E,G,]2 [E,G,]>[E,G,] [E,G,]2 [E,B,]>[E,A,] | ([E,G,]2 [E,G,]>[E,G,] E,D,)[C,A,][B,,G,] | %5
 [A,,A,]2 [A,,A,]>[A,,A,] [A,,A,]2 [B,,G,]>[C,A,] | [D,A,]6 ([D,A,][D,A,]) | %7
 [E,A,]2 [E,A,]>[E,C] [E,D]2 [E,E]>[E,D] | (A,,2 A,,>A,, A,,2) || z2 | %10
 z2 [E,B,]>[E,B,] [E,B,]2 z2 | z2 [A,C]>[A,C] [A,C]2 [A,E]2 | %12
 [B,E]2 [B,E]>[B,E] [A,E]2 [A,C]>[A,E] | (E,2 E,>E, E,2) C>B, | (A,2- A,,>A,,) A,,2 D>C | %15
 D2 [F,A,]>[F,A,] [F,A,]2 [B,,A,]2 | (A,C) [E,E]>[E,E] [E,E]2 [E,E]>[E,D] | [A,,C]6 |] %18
V:4
 x2 | x8 | x8 | x8 | x4 G,2 x2 | x8 | x8 | x8 | C6 || x2 | x8 | x8 | x8 | E4 x4 | x2 A,4 x2 | x8 | %16
 E,2 x6 | x6 |] %18

